Newaita-dark/apps/48/liri-browser.svg

<svg height="48pt" viewBox="0 0 48 48" width="48pt" xmlns="http://www.w3.org/2000/svg" xmlns:xlink="http://www.w3.org/1999/xlink"><linearGradient id="a"><stop offset="0" stop-opacity=".313725"/><stop offset=".222222" stop-opacity=".27451"/><stop offset="1" stop-opacity="0"/></linearGradient><radialGradient id="b" cx="450.908936" cy="189.579361" gradientTransform="matrix(.00000026 -.117199 -.210958 -.00000015 66.784728 95.392994)" gradientUnits="userSpaceOnUse" r="21.166656" xlink:href="#a"/><radialGradient id="c" cx="450.908936" cy="189.579361" gradientTransform="matrix(-.00000026 .117199 .210958 .00000015 -19.155178 -11.291223)" gradientUnits="userSpaceOnUse" r="21.166656" xlink:href="#a"/><radialGradient id="d" cx="450.908936" cy="189.579361" gradientTransform="matrix(-.00000026 -.117199 .210958 -.00000015 -19.155178 95.392994)" gradientUnits="userSpaceOnUse" r="21.166656" xlink:href="#a"/><radialGradient id="e" cx="450.908936" cy="189.579361" gradientTransform="matrix(.00000026 .117199 -.210958 .00000015 66.784725 -11.291224)" gradientUnits="userSpaceOnUse" r="21.166656" xlink:href="#a"/><linearGradient id="f" gradientTransform="matrix(.0200401 0 0 .093759 18.698079 20.158175)" gradientUnits="userSpaceOnUse" x1="255.323059" x2="255.323044" y1="233.5" y2="254.666656"><stop offset="0" stop-opacity=".27451"/><stop offset="1" stop-opacity="0"/></linearGradient><linearGradient id="g" gradientUnits="userSpaceOnUse" x1="254" x2="254" y1="-168.666672" y2="233.5"><stop offset="0" stop-color="#aed581"/><stop offset="1" stop-color="#9ccc65"/></linearGradient><linearGradient id="h" gradientUnits="userSpaceOnUse" x1="960" x2="959.999939" y1="1695.118164" y2="335.118103"><stop offset="0" stop-color="#42a5f5"/><stop offset="1" stop-color="#64b5f6"/></linearGradient><linearGradient id="i" gradientUnits="userSpaceOnUse" x1="1320" x2="1320" y1="1695.118164" y2="175.118134"><stop offset="0" stop-color="#546e7a"/><stop offset="1" stop-color="#607d8b"/></linearGradient><linearGradient id="j"><stop offset="0" stop-color="#e0e0e0"/><stop offset="1" stop-color="#eee"/></linearGradient><linearGradient id="k" gradientUnits="userSpaceOnUse" x1="275.166656" x2="275.166656" xlink:href="#j" y1="-84" y2="-126.333344"/><linearGradient id="l" gradientUnits="userSpaceOnUse" x1="349.249984" x2="349.249984" xlink:href="#j" y1="-73.416661" y2="-115.750005"/><linearGradient id="m" gradientUnits="userSpaceOnUse" x1="328.083328" x2="328.083328" xlink:href="#j" y1="-20.499992" y2="-62.833336"/><linearGradient id="n" gradientUnits="userSpaceOnUse" x1="402.166664" x2="402.166664" xlink:href="#j" y1=".666672" y2="-41.666672"/><linearGradient id="o" gradientUnits="userSpaceOnUse" x1="381" x2="381" xlink:href="#j" y1="64.166687" y2="21.833343"/><path d="m27.289062 42.050781h3.96875v-1.984375h-3.96875zm0 0" fill="url(#b)"/><path d="m20.339844 42.050781h-3.96875v1.984375h3.96875zm0 0" fill="url(#c)"/><path d="m20.339844 42.050781h-3.96875v-1.984375h3.96875zm0 0" fill="url(#d)"/><path d="m27.289062 42.050781h3.96875v1.984375h-3.96875zm0 0" fill="url(#e)"/><path d="m20.339844 41.554688h6.949218v2.480468h-6.949218zm0 0" fill="url(#f)"/><path d="m254.017409-168.671091c111.031064 0 201.064133 90.033069 201.064133 201.105795 0 111.031064-90.033069 201.064133-201.064133 201.064133-111.072726 0-201.105795-90.033069-201.105795-201.064133 0-111.072726 90.033069-201.105795 201.105795-201.105795zm0 0" fill="url(#g)" stroke="#333" stroke-linecap="round" stroke-width="3" transform="matrix(.093759 0 0 .093759 0 20.158175)"/><path d="m289.893592 575.063225c-36.217016 67.710073-62.513719 141.561292-77.000525 219.664074 166.755738 75.110941 387.049673 60.46667 353.194636 205.492198-86.133511 254.936298 193.839768 334.928663 273.989598 334.928663 197.776399 44.090281 39.996183 249.897409 119.988548 359.965644 244.701055 0 461.688219-114.477263 600.415136-293.042897-155.418238 54.325524-80.464761-66.922747-200.453309-146.915112-439.95801-119.988548-560.104023-319.969461-519.950375-680.09257l-400.119292-39.996183-74.323615 39.996183zm0 0" fill="url(#h)" stroke="#333" stroke-linecap="round" stroke-width="11.338583" transform="scale(.0248071)"/><path d="m960.065849 175.101398c-323.591163 0-598.683018 200.295844-708.751252 484.048289 104.399484-53.695662 222.813379-84.086462 348.628143-84.086462 421.062175 0 760.084936 339.022761 760.084936 760.084935 0 97.471013-18.265974 190.532997-51.333684 276.036647 244.701055-125.972229 411.299328-380.908527 411.299328-675.998473 0-421.062175-339.022761-760.084936-759.927471-760.084936zm0 0" fill="url(#i)" stroke="#333" stroke-linecap="round" stroke-width="11.338583" transform="scale(.0248071)"/><path d="m23.816406 42.050781c-10.445312 0-18.855468-8.410156-18.855468-18.851562 0-.0625 0-.125 0-.1875.101562 10.359375 8.472656 18.667969 18.855468 18.667969 10.382813 0 18.753906-8.308594 18.851563-18.667969v.1875c0 10.441406-8.410157 18.851562-18.851563 18.851562zm0 0" fill-opacity=".196078"/><path d="m23.816406 4.34375c-10.445312 0-18.855468 8.410156-18.855468 18.855469v.183593c.101562-10.359374 8.472656-18.667968 18.855468-18.667968 10.382813 0 18.753906 8.308594 18.851563 18.667968 0-.0625 0-.125 0-.183593 0-10.445313-8.410157-18.855469-18.851563-18.855469zm0 0" fill="#fff" fill-opacity=".392157"/><path d="m23.816406 4.203125c-10.523437 0-18.996094 8.472656-18.996094 18.996094 0 10.519531 8.472657 18.992187 18.996094 18.992187 10.519532 0 18.992188-8.472656 18.992188-18.992187 0-10.523438-8.472656-18.996094-18.992188-18.996094zm0 .28125c10.367188 0 18.710938 8.34375 18.710938 18.714844 0 10.367187-8.34375 18.710937-18.710938 18.710937-10.371094 0-18.714844-8.34375-18.714844-18.710937 0-10.371094 8.34375-18.714844 18.714844-18.714844zm0 0" fill="#212121"/><g stroke-width="3"><path d="m275.182055-84.012509c-2.958051 0-5.41615-11.582227-7.499284-13.665361-2.083134-2.083135-13.665362-4.541233-13.665362-7.499284s11.582228-5.374487 13.665362-7.457621c2.083134-2.124797 4.541233-13.707025 7.499284-13.707025s5.374487 11.582228 7.457621 13.707025c2.124797 2.083134 13.707024 4.49957 13.707024 7.457621s-11.582227 5.416149-13.707024 7.499284c-2.083134 2.083134-4.49957 13.665361-7.457621 13.665361zm0 0" fill="url(#k)" stroke="#333" stroke-linecap="square" stroke-linejoin="round" transform="matrix(.093759 0 0 .093759 0 20.158175)"/><path d="m349.258314-73.430186c-2.958051 0-5.416149-11.582227-7.499284-13.665362-2.083134-2.083134-13.665361-4.541233-13.665361-7.499283 0-2.958051 11.582227-5.374487 13.665361-7.457622 2.083135-2.124797 4.541233-13.707024 7.499284-13.707024s5.374487 11.582227 7.457621 13.707024c2.124797 2.083135 13.707025 4.499571 13.707025 7.457622 0 2.95805-11.582228 5.416149-13.707025 7.499283-2.083134 2.083135-4.49957 13.665362-7.457621 13.665362zm0 0" fill="url(#l)" stroke="#333" stroke-linecap="square" stroke-linejoin="round" transform="matrix(.093759 0 0 .093759 0 20.158175)"/><path d="m328.093669-20.518572c-2.958051 0-5.41615-11.582227-7.499284-13.665362-2.083135-2.083134-13.665362-4.49957-13.665362-7.499284 0-2.95805 11.582227-5.374486 13.665362-7.457621 2.083134-2.124797 4.541233-13.707024 7.499284-13.707024 2.95805 0 5.374486 11.582227 7.457621 13.707024 2.124797 2.083135 13.707024 4.499571 13.707024 7.457621 0 2.999714-11.582227 5.41615-13.707024 7.499284-2.083135 2.083135-4.499571 13.665362-7.457621 13.665362zm0 0" fill="url(#m)" stroke="#333" stroke-linecap="square" stroke-linejoin="round" transform="matrix(.093759 0 0 .093759 0 20.158175)"/><path d="m402.169928.646073c-2.958051 0-5.374487-11.582227-7.499284-13.665361-2.083134-2.083135-13.665362-4.499571-13.665362-7.499284 0-2.958051 11.582228-5.374487 13.665362-7.457621 2.124797-2.083135 4.541233-13.707025 7.499284-13.707025s5.374487 11.62389 7.499284 13.707025c2.083134 2.083134 13.665362 4.49957 13.665362 7.457621 0 2.999713-11.582228 5.416149-13.665362 7.499284-2.124797 2.083134-4.541233 13.665361-7.499284 13.665361zm0 0" fill="url(#n)" stroke="#333" stroke-linecap="square" stroke-linejoin="round" transform="matrix(.093759 0 0 .093759 0 20.158175)"/><path d="m381.005282 64.181673c-2.95805 0-5.374486-11.582227-7.499283-13.707025-2.083135-2.083134-13.665362-4.49957-13.665362-7.457621 0-2.999713 11.582227-5.416149 13.665362-7.499284 2.124797-2.083134 4.541233-13.665361 7.499283-13.665361 2.958051 0 5.374487 11.582227 7.457622 13.665361 2.124797 2.083135 13.707024 4.499571 13.707024 7.499284 0 2.958051-11.582227 5.374487-13.707024 7.457621-2.083135 2.124798-4.499571 13.707025-7.457622 13.707025zm0 0" fill="url(#o)" stroke="#333" stroke-linecap="square" stroke-linejoin="round" transform="matrix(.093759 0 0 .093759 0 20.158175)"/></g></svg>

<?xml version="1.0" encoding="UTF-8"?>
<svg xmlns="http://www.w3.org/2000/svg" xmlns:xlink="http://www.w3.org/1999/xlink" width="48pt" height="48pt" viewBox="0 0 48 48" version="1.1">
<defs>
<radialGradient id="radial0" gradientUnits="userSpaceOnUse" cx="450.908936" cy="189.579361" fx="450.908936" fy="189.579361" r="21.166656" gradientTransform="matrix(0.000000261256,-0.117199,-0.210958,-0.000000152308,66.784728,95.392994)">
<stop offset="0" style="stop-color:rgb(0%,0%,0%);stop-opacity:0.313725;"/>
<stop offset="0.222222" style="stop-color:rgb(0%,0%,0%);stop-opacity:0.27451;"/>
<stop offset="1" style="stop-color:rgb(0%,0%,0%);stop-opacity:0;"/>
</radialGradient>
<radialGradient id="radial1" gradientUnits="userSpaceOnUse" cx="450.908936" cy="189.579361" fx="450.908936" fy="189.579361" r="21.166656" gradientTransform="matrix(-0.000000261256,0.117199,0.210958,0.000000152308,-19.155178,-11.291223)">
<stop offset="0" style="stop-color:rgb(0%,0%,0%);stop-opacity:0.313725;"/>
<stop offset="0.222222" style="stop-color:rgb(0%,0%,0%);stop-opacity:0.27451;"/>
<stop offset="1" style="stop-color:rgb(0%,0%,0%);stop-opacity:0;"/>
</radialGradient>
<radialGradient id="radial2" gradientUnits="userSpaceOnUse" cx="450.908936" cy="189.579361" fx="450.908936" fy="189.579361" r="21.166656" gradientTransform="matrix(-0.000000261256,-0.117199,0.210958,-0.000000152308,-19.155178,95.392994)">
<stop offset="0" style="stop-color:rgb(0%,0%,0%);stop-opacity:0.313725;"/>
<stop offset="0.222222" style="stop-color:rgb(0%,0%,0%);stop-opacity:0.27451;"/>
<stop offset="1" style="stop-color:rgb(0%,0%,0%);stop-opacity:0;"/>
</radialGradient>
<radialGradient id="radial3" gradientUnits="userSpaceOnUse" cx="450.908936" cy="189.579361" fx="450.908936" fy="189.579361" r="21.166656" gradientTransform="matrix(0.000000261256,0.117199,-0.210958,0.000000152308,66.784725,-11.291224)">
<stop offset="0" style="stop-color:rgb(0%,0%,0%);stop-opacity:0.313725;"/>
<stop offset="0.222222" style="stop-color:rgb(0%,0%,0%);stop-opacity:0.27451;"/>
<stop offset="1" style="stop-color:rgb(0%,0%,0%);stop-opacity:0;"/>
</radialGradient>
<linearGradient id="linear0" gradientUnits="userSpaceOnUse" x1="255.323059" y1="233.5" x2="255.323044" y2="254.666656" gradientTransform="matrix(0.0200401,0,0,0.093759,18.698079,20.158175)">
<stop offset="0" style="stop-color:rgb(0%,0%,0%);stop-opacity:0.27451;"/>
<stop offset="1" style="stop-color:rgb(0%,0%,0%);stop-opacity:0;"/>
</linearGradient>
<linearGradient id="linear1" gradientUnits="userSpaceOnUse" x1="254" y1="-168.666672" x2="254" y2="233.5" gradientTransform="matrix(1,0,0,1,0,0)">
<stop offset="0" style="stop-color:rgb(68.235294%,83.529412%,50.588235%);stop-opacity:1;"/>
<stop offset="1" style="stop-color:rgb(61.176471%,80%,39.607843%);stop-opacity:1;"/>
</linearGradient>
<linearGradient id="linear2" gradientUnits="userSpaceOnUse" x1="960" y1="1695.118164" x2="959.999939" y2="335.118103" gradientTransform="matrix(1,0,0,1,0,0)">
<stop offset="0" style="stop-color:rgb(25.882353%,64.705882%,96.078431%);stop-opacity:1;"/>
<stop offset="1" style="stop-color:rgb(39.215686%,70.980392%,96.470588%);stop-opacity:1;"/>
</linearGradient>
<linearGradient id="linear3" gradientUnits="userSpaceOnUse" x1="1320" y1="1695.118164" x2="1320" y2="175.118134" gradientTransform="matrix(1,0,0,1,0,0)">
<stop offset="0" style="stop-color:rgb(32.941176%,43.137255%,47.843137%);stop-opacity:1;"/>
<stop offset="1" style="stop-color:rgb(37.647059%,49.019608%,54.509804%);stop-opacity:1;"/>
</linearGradient>
<linearGradient id="linear4" gradientUnits="userSpaceOnUse" x1="275.166656" y1="-84" x2="275.166656" y2="-126.333344" gradientTransform="matrix(1,0,0,1,0,0)">
<stop offset="0" style="stop-color:rgb(87.843137%,87.843137%,87.843137%);stop-opacity:1;"/>
<stop offset="1" style="stop-color:rgb(93.333333%,93.333333%,93.333333%);stop-opacity:1;"/>
</linearGradient>
<linearGradient id="linear5" gradientUnits="userSpaceOnUse" x1="275.166656" y1="-84" x2="275.166656" y2="-126.333344" gradientTransform="matrix(1,0,0,1,74.083328,10.583339)">
<stop offset="0" style="stop-color:rgb(87.843137%,87.843137%,87.843137%);stop-opacity:1;"/>
<stop offset="1" style="stop-color:rgb(93.333333%,93.333333%,93.333333%);stop-opacity:1;"/>
</linearGradient>
<linearGradient id="linear6" gradientUnits="userSpaceOnUse" x1="275.166656" y1="-84" x2="275.166656" y2="-126.333344" gradientTransform="matrix(1,0,0,1,52.916672,63.500008)">
<stop offset="0" style="stop-color:rgb(87.843137%,87.843137%,87.843137%);stop-opacity:1;"/>
<stop offset="1" style="stop-color:rgb(93.333333%,93.333333%,93.333333%);stop-opacity:1;"/>
</linearGradient>
<linearGradient id="linear7" gradientUnits="userSpaceOnUse" x1="275.166656" y1="-84" x2="275.166656" y2="-126.333344" gradientTransform="matrix(1,0,0,1,127.000008,84.666672)">
<stop offset="0" style="stop-color:rgb(87.843137%,87.843137%,87.843137%);stop-opacity:1;"/>
<stop offset="1" style="stop-color:rgb(93.333333%,93.333333%,93.333333%);stop-opacity:1;"/>
</linearGradient>
<linearGradient id="linear8" gradientUnits="userSpaceOnUse" x1="275.166656" y1="-84" x2="275.166656" y2="-126.333344" gradientTransform="matrix(1,0,0,1,105.833344,148.166687)">
<stop offset="0" style="stop-color:rgb(87.843137%,87.843137%,87.843137%);stop-opacity:1;"/>
<stop offset="1" style="stop-color:rgb(93.333333%,93.333333%,93.333333%);stop-opacity:1;"/>
</linearGradient>
</defs>
<g id="surface1">
<path style=" stroke:none;fill-rule:nonzero;fill:url(#radial0);" d="M 27.289062 42.050781 L 31.257812 42.050781 L 31.257812 40.066406 L 27.289062 40.066406 Z M 27.289062 42.050781 "/>
<path style=" stroke:none;fill-rule:nonzero;fill:url(#radial1);" d="M 20.339844 42.050781 L 16.371094 42.050781 L 16.371094 44.035156 L 20.339844 44.035156 Z M 20.339844 42.050781 "/>
<path style=" stroke:none;fill-rule:nonzero;fill:url(#radial2);" d="M 20.339844 42.050781 L 16.371094 42.050781 L 16.371094 40.066406 L 20.339844 40.066406 Z M 20.339844 42.050781 "/>
<path style=" stroke:none;fill-rule:nonzero;fill:url(#radial3);" d="M 27.289062 42.050781 L 31.257812 42.050781 L 31.257812 44.035156 L 27.289062 44.035156 Z M 27.289062 42.050781 "/>
<path style=" stroke:none;fill-rule:nonzero;fill:url(#linear0);" d="M 20.339844 41.554688 L 27.289062 41.554688 L 27.289062 44.035156 L 20.339844 44.035156 Z M 20.339844 41.554688 "/>
<path style="fill-rule:nonzero;fill:url(#linear1);stroke-width:3;stroke-linecap:round;stroke-linejoin:miter;stroke:rgb(20%,20%,20%);stroke-opacity:1;stroke-miterlimit:4;" d="M 254.017409 -168.671091 C 365.048473 -168.671091 455.081542 -78.638022 455.081542 32.434704 C 455.081542 143.465768 365.048473 233.498837 254.017409 233.498837 C 142.944683 233.498837 52.911614 143.465768 52.911614 32.434704 C 52.911614 -78.638022 142.944683 -168.671091 254.017409 -168.671091 Z M 254.017409 -168.671091 " transform="matrix(0.093759,0,0,0.093759,0,20.158175)"/>
<path style="fill-rule:nonzero;fill:url(#linear2);stroke-width:11.338583;stroke-linecap:round;stroke-linejoin:miter;stroke:rgb(20%,20%,20%);stroke-opacity:1;stroke-miterlimit:4;" d="M 289.893592 575.063225 C 253.676576 642.773298 227.379873 716.624517 212.893067 794.727299 C 379.648805 869.83824 599.94274 855.193969 566.087703 1000.219497 C 479.954192 1255.155795 759.927471 1335.14816 840.077301 1335.14816 C 1037.8537 1379.238441 880.073484 1585.045569 960.065849 1695.113804 C 1204.766904 1695.113804 1421.754068 1580.636541 1560.480985 1402.070907 C 1405.062747 1456.396431 1480.016224 1335.14816 1360.027676 1255.155795 C 920.069666 1135.167247 799.923653 935.186334 840.077301 575.063225 L 439.958009 535.067042 L 365.634394 575.063225 Z M 289.893592 575.063225 " transform="matrix(0.0248071,0,0,0.0248071,0,0)"/>
<path style="fill-rule:nonzero;fill:url(#linear3);stroke-width:11.338583;stroke-linecap:round;stroke-linejoin:miter;stroke:rgb(20%,20%,20%);stroke-opacity:1;stroke-miterlimit:4;" d="M 960.065849 175.101398 C 636.474686 175.101398 361.382831 375.397242 251.314597 659.149687 C 355.714081 605.454025 474.127976 575.063225 599.94274 575.063225 C 1021.004915 575.063225 1360.027676 914.085986 1360.027676 1335.14816 C 1360.027676 1432.619173 1341.761702 1525.681157 1308.693992 1611.184807 C 1553.395047 1485.212578 1719.99332 1230.27628 1719.99332 935.186334 C 1719.99332 514.124159 1380.970559 175.101398 960.065849 175.101398 Z M 960.065849 175.101398 " transform="matrix(0.0248071,0,0,0.0248071,0,0)"/>
<path style=" stroke:none;fill-rule:nonzero;fill:rgb(0%,0%,0%);fill-opacity:0.196078;" d="M 23.816406 42.050781 C 13.371094 42.050781 4.960938 33.640625 4.960938 23.199219 C 4.960938 23.136719 4.960938 23.074219 4.960938 23.011719 C 5.0625 33.371094 13.433594 41.679688 23.816406 41.679688 C 34.199219 41.679688 42.570312 33.371094 42.667969 23.011719 C 42.667969 23.074219 42.667969 23.136719 42.667969 23.199219 C 42.667969 33.640625 34.257812 42.050781 23.816406 42.050781 Z M 23.816406 42.050781 "/>
<path style=" stroke:none;fill-rule:nonzero;fill:rgb(100%,100%,100%);fill-opacity:0.392157;" d="M 23.816406 4.34375 C 13.371094 4.34375 4.960938 12.753906 4.960938 23.199219 C 4.960938 23.257812 4.960938 23.320312 4.960938 23.382812 C 5.0625 13.023438 13.433594 4.714844 23.816406 4.714844 C 34.199219 4.714844 42.570312 13.023438 42.667969 23.382812 C 42.667969 23.320312 42.667969 23.257812 42.667969 23.199219 C 42.667969 12.753906 34.257812 4.34375 23.816406 4.34375 Z M 23.816406 4.34375 "/>
<path style=" stroke:none;fill-rule:nonzero;fill:rgb(12.941177%,12.941177%,12.941177%);fill-opacity:1;" d="M 23.816406 4.203125 C 13.292969 4.203125 4.820312 12.675781 4.820312 23.199219 C 4.820312 33.71875 13.292969 42.191406 23.816406 42.191406 C 34.335938 42.191406 42.808594 33.71875 42.808594 23.199219 C 42.808594 12.675781 34.335938 4.203125 23.816406 4.203125 Z M 23.816406 4.484375 C 34.183594 4.484375 42.527344 12.828125 42.527344 23.199219 C 42.527344 33.566406 34.183594 41.910156 23.816406 41.910156 C 13.445312 41.910156 5.101562 33.566406 5.101562 23.199219 C 5.101562 12.828125 13.445312 4.484375 23.816406 4.484375 Z M 23.816406 4.484375 "/>
<path style="fill-rule:nonzero;fill:url(#linear4);stroke-width:3;stroke-linecap:square;stroke-linejoin:round;stroke:rgb(20%,20%,20%);stroke-opacity:1;stroke-miterlimit:4;" d="M 275.182055 -84.012509 C 272.224004 -84.012509 269.765905 -95.594736 267.682771 -97.67787 C 265.599637 -99.761005 254.017409 -102.219103 254.017409 -105.177154 C 254.017409 -108.135205 265.599637 -110.551641 267.682771 -112.634775 C 269.765905 -114.759572 272.224004 -126.3418 275.182055 -126.3418 C 278.140106 -126.3418 280.556542 -114.759572 282.639676 -112.634775 C 284.764473 -110.551641 296.3467 -108.135205 296.3467 -105.177154 C 296.3467 -102.219103 284.764473 -99.761005 282.639676 -97.67787 C 280.556542 -95.594736 278.140106 -84.012509 275.182055 -84.012509 Z M 275.182055 -84.012509 " transform="matrix(0.093759,0,0,0.093759,0,20.158175)"/>
<path style="fill-rule:nonzero;fill:url(#linear5);stroke-width:3;stroke-linecap:square;stroke-linejoin:round;stroke:rgb(20%,20%,20%);stroke-opacity:1;stroke-miterlimit:4;" d="M 349.258314 -73.430186 C 346.300263 -73.430186 343.842165 -85.012413 341.75903 -87.095548 C 339.675896 -89.178682 328.093669 -91.636781 328.093669 -94.594831 C 328.093669 -97.552882 339.675896 -99.969318 341.75903 -102.052453 C 343.842165 -104.17725 346.300263 -115.759477 349.258314 -115.759477 C 352.216365 -115.759477 354.632801 -104.17725 356.715935 -102.052453 C 358.840732 -99.969318 370.42296 -97.552882 370.42296 -94.594831 C 370.42296 -91.636781 358.840732 -89.178682 356.715935 -87.095548 C 354.632801 -85.012413 352.216365 -73.430186 349.258314 -73.430186 Z M 349.258314 -73.430186 " transform="matrix(0.093759,0,0,0.093759,0,20.158175)"/>
<path style="fill-rule:nonzero;fill:url(#linear6);stroke-width:3;stroke-linecap:square;stroke-linejoin:round;stroke:rgb(20%,20%,20%);stroke-opacity:1;stroke-miterlimit:4;" d="M 328.093669 -20.518572 C 325.135618 -20.518572 322.677519 -32.100799 320.594385 -34.183934 C 318.51125 -36.267068 306.929023 -38.683504 306.929023 -41.683218 C 306.929023 -44.641268 318.51125 -47.057704 320.594385 -49.140839 C 322.677519 -51.265636 325.135618 -62.847863 328.093669 -62.847863 C 331.051719 -62.847863 333.468155 -51.265636 335.55129 -49.140839 C 337.676087 -47.057704 349.258314 -44.641268 349.258314 -41.683218 C 349.258314 -38.683504 337.676087 -36.267068 335.55129 -34.183934 C 333.468155 -32.100799 331.051719 -20.518572 328.093669 -20.518572 Z M 328.093669 -20.518572 " transform="matrix(0.093759,0,0,0.093759,0,20.158175)"/>
<path style="fill-rule:nonzero;fill:url(#linear7);stroke-width:3;stroke-linecap:square;stroke-linejoin:round;stroke:rgb(20%,20%,20%);stroke-opacity:1;stroke-miterlimit:4;" d="M 402.169928 0.646073 C 399.211877 0.646073 396.795441 -10.936154 394.670644 -13.019288 C 392.58751 -15.102423 381.005282 -17.518859 381.005282 -20.518572 C 381.005282 -23.476623 392.58751 -25.893059 394.670644 -27.976193 C 396.795441 -30.059328 399.211877 -41.683218 402.169928 -41.683218 C 405.127979 -41.683218 407.544415 -30.059328 409.669212 -27.976193 C 411.752346 -25.893059 423.334574 -23.476623 423.334574 -20.518572 C 423.334574 -17.518859 411.752346 -15.102423 409.669212 -13.019288 C 407.544415 -10.936154 405.127979 0.646073 402.169928 0.646073 Z M 402.169928 0.646073 " transform="matrix(0.093759,0,0,0.093759,0,20.158175)"/>
<path style="fill-rule:nonzero;fill:url(#linear8);stroke-width:3;stroke-linecap:square;stroke-linejoin:round;stroke:rgb(20%,20%,20%);stroke-opacity:1;stroke-miterlimit:4;" d="M 381.005282 64.181673 C 378.047232 64.181673 375.630796 52.599446 373.505999 50.474648 C 371.422864 48.391514 359.840637 45.975078 359.840637 43.017027 C 359.840637 40.017314 371.422864 37.600878 373.505999 35.517743 C 375.630796 33.434609 378.047232 21.852382 381.005282 21.852382 C 383.963333 21.852382 386.379769 33.434609 388.462904 35.517743 C 390.587701 37.600878 402.169928 40.017314 402.169928 43.017027 C 402.169928 45.975078 390.587701 48.391514 388.462904 50.474648 C 386.379769 52.599446 383.963333 64.181673 381.005282 64.181673 Z M 381.005282 64.181673 " transform="matrix(0.093759,0,0,0.093759,0,20.158175)"/>
</g>
</svg>
